X:2
T: The Banks of Lough Gowna $1(Trad Irish)
R: jig
M: 6/8
L: 1/8
K: D
"Bm"B3 BAF|"D"FEF DFA|"Bm"~B3 BAF|"D"d2 e fdc|
"Bm"~B3 BAF|"D"FEF DFA|"G"def "Em"gfe|1"Bm"fdB BFA:|\
	[2 "Bm"fdB B2A||
[|:"D"def a2b|afb afe|"Bm"dFA def|"G"g2 g "A"fdB|
"D"def a2b |afb afe|"G"def "Em"gfe|1"Bm"fdB B2A:|\
	[2 "Bm"fdB B3||
%%begintext ragged
Transition: Play either Glen Echo or Sligo Creek next, depending on what our Beloved Leader says.  If going to Sligo Creek, skip the pickups.
%%endtext
%%scale .5
